X: 9256
T: Dan Roger's
R: slide
M: 12/8
K: Gmajor
def|gdB B2A B2A Bcd|efe edB dBA AB/c/d|
gdB B2A B2A Bcd|efg fed e3:|
e2f|gag faf gfg edB|edB Bed BAA A2 e/f/|
gag faf gfg efg|~a Bcd e3:|

